!!!COA: Josquin des Prez
!!!CDT: ~1450-1521/08/27
!!!COM: Bauldeweyn
!!!OTL@@GER: Ach hulff mich leid
!!!AGN: Chanson
!!!SCT: NJE 28.2
!!!SCA: New Josquin Edition 28.2
!!!voices: 4
**kern	**kern	**kern	**kern
*staff4	*staff3	*staff2	*staff1
*Ivox	*Ivox	*Ivox	*Ivox
*I"Bassus	*I"Tenor	*I"Altus	*I"Superius
*I'B	*I'T	*I'A	*I'S
*>[A,A,B]	*>[A,A,B]	*>[A,A,B]	*>[A,A,B]
*>norep[A,B]	*>norep[A,B]	*>norep[A,B]	*>norep[A,B]
*>Part1[A]	*>Part1[A]	*>Part1[A]	*>Part1[A]
*>Part2[B]	*>Part2[B]	*>Part2[B]	*>Part2[B]
*clefF4	*clefGv2	*clefGv2	*clefG2
*k[b-e-]	*k[b-]	*k[b-]	*k[b-]
*M2/1	*M2/1	*M2/1	*M2/1
*met(C|)	*met(C|)	*met(C|)	*met(C|)
*>A	*>A	*>A	*>A
=1-	=1-	=1-	=1-
0D	0r	0r	0r
=2	=2	=2	=2
1.F	1r	0r	0r
.	[1A	.	.
2E-\	.	.	.
=3	=3	=3	=3
1D	1A]	0r	0r
2D\	1A	.	.
[2C/	.	.	.
=4	=4	=4	=4
2C/]	1G	0r	0r
2E-\	.	.	.
[1D	2.F/	.	.
.	4G/	.	.
=5	=5	=5	=5
2D\]	4A/	0r	0r
.	4F/	.	.
4C/	1B-	.	.
4BB-/	.	.	.
2C/	.	.	.
2C/	2A/	.	.
=6	=6	=6	=6
0BB-	1.B-	0d	0r
.	4A/	.	.
.	4G/	.	.
=7	=7	=7	=7
1r	1F	1.f	0r
1F	1r	.	.
.	.	2e-i\	.
=8	=8	=8	=8
1B-	0r	1d	0r
2A\	.	2c\	.
[2G\	.	[2B-\	.
=9	=9	=9	=9
2G\]	1r	2B-\]	0r
2F\	.	4A/	.
.	.	4G/	.
1D	1A	2F/	.
.	.	[2f\	.
=10	=10	=10	=10
1r	1A	2f\]	0r
.	.	4e-i\	.
.	.	4d\	.
1F	1A	1c	.
=11	=11	=11	=11
1BB-	2.B-\	0B-	0r
.	4A/	.	.
2E-\	2G/	.	.
[2D\	2F/	.	.
=12	=12	=12	=12
2D\]	1E-i	1r	0r
2C/	.	.	.
[1D	2.D/	[1d	.
.	4Eni/	.	.
=13	=13	=13	=13
1D]	2F/	1d]	0r
.	2G/	.	.
1F	2.A/	1c	.
.	4B-\	.	.
=14	=14	=14	=14
1F	2c\	[0f	0r
.	1d	.	.
1D	.	.	.
.	4c\	.	.
.	4B-\	.	.
=15	=15	=15	=15
1F	1A	1f]	0r
1BB-	[1B-	2d\	.
.	.	[2f\	.
=16	=16	=16	=16
1r	1B-]	4f\]	0r
.	.	4e\	.
.	.	1d	.
1E-	1G	.	.
.	.	2c\	.
=17	=17	=17	=17
2D\	2.A/	2d\	0r
2.F\	.	4c\	.
.	4B-\	4B-\	.
.	2c\	2A/	.
4E-\	.	.	.
[2D\	[2F/	[2B-\	.
=18	=18	=18	=18
2D\]	2F/]	2B-\]	0r
4C/	4E/	4A/	.
4BB-/	4D/	4G/	.
2C/	2E/	2A/	.
2D\	2F/	[2B-\	.
=19	=19	=19	=19
1GG	4G/	4B-\]	0r
.	4F/	4A/	.
.	4E/	1G	.
.	4D/	.	.
1AA	1C	.	.
.	.	2F#i/	.
=20	=20	=20	=20
!! The following notes should appear a breves (not longs):
0GG	0D	0G	0r
=21:|!	=21:|!	=21:|!	=21:|!
*>B	*>B	*>B	*>B
1r	0B-	1d	0g
1G	.	2d\	.
.	.	[2d\	.
=22	=22	=22	=22
1G	1B-	2d\]	1g
.	.	2B-\	.
1F	1A	1c	1a
=23	=23	=23	=23
0G	1G	1B-	0b-
.	[1B-	2G/	.
.	.	[2g\	.
=24	=24	=24	=24
1G	1B-]	2g\]	1b-
.	.	4f\	.
.	.	4e\	.
1G	1B-	2d\	1b-
.	.	2e\	.
=25	=25	=25	=25
2F\	2c\	1.f	0a
1D	1d	.	.
2F\	4c\	2d\	.
.	4B-\	.	.
=26	=26	=26	=26
2E-\	2c\	2e-i\	0r
2D\	1d	1f	.
1BB-	.	.	.
.	4c\	4e-i\	.
.	4B-\	4d\	.
=27	=27	=27	=27
1r	0A	0c	1.a
1F	.	.	.
.	.	.	[2a/
=28	=28	=28	=28
1F	1A	1.c	2a/]
.	.	.	4g/
.	.	.	4f/
2E-\	2G/	.	2g/
[2D\	[2A/	[2d\	[2f/
=29	=29	=29	=29
2D\]	2A/]	2d\]	2f/]
2D\	4G/	2B-\	4e/
.	4F/	.	4d/
2C/	[1G	2c\	2e/
2BB-/	.	2d\	2d/
=30	=30	=30	=30
1C	1G]	4e\	2g/
.	.	4d\	.
.	.	4c\	1g
.	.	4B-\	.
1D	1D	1A	.
.	.	.	2f#i/
=31	=31	=31	=31
2GG/	1.d	0G	0g
1BB-	.	.	.
2C/	2e-i\	.	.
=32	=32	=32	=32
0D	2d\	0F	0r
.	4c\	.	.
.	4B-\	.	.
.	1A	.	.
=33	=33	=33	=33
1r	2G/	0B-	0g
.	2.B-\	.	.
1G	.	.	.
.	4c\	.	.
.	[2d\	.	.
=34	=34	=34	=34
1G	2d\]	1B-	1g
.	4c\	.	.
.	4B-\	.	.
2F\	2c\	2A/	2a/
[2G\	2B-\	2G/	[2b-\
=35	=35	=35	=35
2G\]	1G	2B-\	2b-\]
2F\	.	2c\	4a/
.	.	.	4g/
1D	1A	1d	1f
=36	=36	=36	=36
2G\	2B-\	1d	2r
1B-	1G	.	1g
.	.	1d	.
2A\	2F/	.	2a/
=37	=37	=37	=37
2G\	2G/	0d	2b-\
2F\	2D/	.	2a/
[1G	[1d	.	2g/
.	.	.	[2b-\
=38	=38	=38	=38
1G]	2d\]	1B-	2b-\]
.	2B-\	.	4a/
.	.	.	4g/
1F	1c	[1f	[1a
=39	=39	=39	=39
1D	2d\	2f\]	0a]
.	4c\	4e\	.
.	4B-\	4d\	.
1F	1A	1c	.
=40	=40	=40	=40
1BB-	1B-	1d	1f
1r	[1G	2e-i\	[1g
.	.	[2d\	.
=41	=41	=41	=41
1B-	1G]	2d\]	1g]
.	.	4c\	.
.	.	4B-\	.
1A	1F	1c	1a
=42	=42	=42	=42
2G\	0G	2B-\	1d
1B-	.	1d	.
.	.	.	1r
2A\	.	4c\	.
.	.	4B-\	.
=43	=43	=43	=43
1F	1D	1A	2r
.	.	.	2a/
1G	2r	1r	2b-\
.	[2d\	.	4a/
.	.	.	4g/
=44	=44	=44	=44
2D\	2d\]	0r	2f/
2E-\	2c\	.	2g/
1F	1A	.	1a
=45	=45	=45	=45
1D	1F	0r	4a/
.	.	.	4g/
.	.	.	4f/
.	.	.	4e/
1B-	2G/	.	1d
.	2D/	.	.
=46	=46	=46	=46
2A\	2F/	1r	2c/
1G	2G/	.	2B-/
.	1D	2r	1A
2F#i\	.	[2d\	.
=47	=47	=47	=47
0G	2r	4d\]	4G/
.	.	4c\	4A/
.	1d	4B-\	4B-/
.	.	4A/	4c/
.	.	2B-\	4d/
.	.	.	4e/
.	2B-\	4A/	4f/
.	.	4G/	4g/
=48	=48	=48	=48
1r	2c\	2F/	2a/
.	2.d\	2.B-\	2.b-\
1G	.	.	.
.	4c\	4c\	4a/
.	2B-\	[2d\	[2g/
=49	=49	=49	=49
1D	1A	4d\]	2g/]
.	.	4c\	.
.	.	2d\	2f#i/
2G\	2G/	2B-\	2g/
[2F\	[2c\	2c\	[2a/
=50	=50	=50	=50
2F\]	2c\]	1A	2a/]
2F\	2A/	.	2f/
2E-\	[1B-	1r	2g/
2D\	.	.	2f/
=51	=51	=51	=51
1BB-	1B-]	0r	2d/
.	.	.	2.f/
1r	1B-	.	.
.	.	.	4e/
.	.	.	[2d/
=52	=52	=52	=52
1F	1A	2r	2d/]
.	.	1A	2c/
1D	1F	.	1d
.	.	2B-\	.
=53	=53	=53	=53
2C/	2E/	2c\	0r
1D	1F	1A	.
2GG/	[2D/	[2B-\	.
=54	=54	=54	=54
2BB-/	2D/]	2B-\]	0r
2AA/	2C/	2c\	.
1FF	2.F/	2.A/	.
.	4G/	4B-\	.
=55	=55	=55	=55
2FF/	2A/	2c\	0r
1BB-	1B-	1d	.
2C/	4A/	4c\	.
.	4G/	4B-\	.
=56	=56	=56	=56
1D	1F	1A	0f
1r	[1B-	2d\	.
.	.	[2d\	.
=57	=57	=57	=57
1G	1B-]	2d\]	1g
.	.	4c\	.
.	.	4B-\	.
1F	1A	1c	1a
=58	=58	=58	=58
1B-	1G	1d	2b-\
.	.	.	4a/
.	.	.	4g/
1A	2D/	2d\	1f
.	2F/	[2c\	.
=59	=59	=59	=59
2G\	2C/	2c\]	0r
1F	2D/	2F/	.
.	1C	1G	.
2Eni\	.	.	.
=60	=60	=60	=60
1F	1c	0F	1r
2D\	2d\	.	[1f
2F\	[2c\	.	.
=61	=61	=61	=61
1BB-	4c\]	1r	1f]
.	4B-\	.	.
.	1B-	.	.
1C	.	1c	1e-i
.	2A/	.	.
=62	=62	=62	=62
0BB-	2B-\	2F/	2d/
.	4A/	2.B-\	1d
.	4G/	.	.
.	2F/	.	.
.	.	4A/	.
.	2G/	[2G/	4c/
.	.	.	4B-/
=63	=63	=63	=63
1r	1D	2G/]	1A
.	.	2F/	.
1GG	1r	2G/	1G
.	.	4F/	.
.	.	4E/	.
=64	=64	=64	=64
1.BB-	1D	2D/	1r
.	.	1d	.
.	[1F	.	1d
2C/	.	4c\	.
.	.	4B-\	.
=65	=65	=65	=65
2D\	2F/]	0A	1.f
2E-\	2G/	.	.
[1F	2A/	.	.
.	2B-\	.	2g/
=66	=66	=66	=66
1F]	2c\	1r	2a/
.	4B-\	.	2b-\
.	4A/	.	.
1E-	1G	1c	4cc\
.	.	.	4b-\
.	.	.	4a/
.	.	.	4g/
=67	=67	=67	=67
1D	1A	1.d	1f
1G	1B-	.	1g
.	.	2e\	.
=68	=68	=68	=68
1D	2A/	2f\	1a
.	4G/	2d\	.
.	4F/	.	.
2C/	2E/	2e\	2r
[2D\	[2D/	[2f\	[2f/
=69	=69	=69	=69
2D\]	2D/]	2f\]	2f/]
4C/	1G	4e\	2g/
4BB-/	.	4d\	.
2AA/	.	1c	1a
2AA/	2F#i/	.	.
=70	=70	=70	=70
0GG	0G	1B-	1b-
.	.	2r	2g/
.	.	[2B-\	[2b-\
=71	=71	=71	=71
0r	2G/	2B-\]	2b-\]
.	4F/	2c\	4a/
.	4E/	.	4g/
.	2D/	2d\	2f/
.	2F/	[2c\	[2a/
=72	=72	=72	=72
0r	1E	4c\]	2a/]
.	.	4B-\	.
.	.	4A/	1g
.	.	4G/	.
.	1D	1A	.
.	.	.	2f#i/
=73	=73	=73	=73
0GGl	0dl	0Gl	0gl
==	==	==	==
*-	*-	*-	*-
!!!RDF**kern: l=long note in original notation
!!!RDF**kern: i=editorial accidental
!!!ENC: Jesse Rodin; Victoria Chang 2011/07/27
!!!END: 2011/07/27/
!!!EED: Jesse Rodin
!!!EEV: 2011/08/15/
!!attribution-level@Jos: 4 (questionable)
!!!ONB: Translated from MusicXML and edited on 2011/08/15/ by Craig Sapp
!!muse2ps:  C^@{COA}?\n@{SCT}^v90,90,90,150I150Q16
